X: 1
T:Kottis Galop
R:Scottish
C:Traditionnel Ile Rodrigues
S:as played by Remi Farla
N:Recorded in August 1998 in Tatihou (France)
A:Rodrigues Island
O:Indian Ocean
Z:J.M HENRY
M:2/4
L:1/8
Q:180
K:G
BG BG| B2 A2| GD GD|G2 GG|FE FG|1 A2 cB|AG FE|D4:|2 A2 D2|E2 F2| G4||!
BG BG|B2 A2|GD GD|G2 GG|FE FG|1 A2 cB|AG FE|D4:|2 A2 D2|E2 F2|G4||!
B,D CB,|CA,3|CE DC|DB,3|DG FA|CE DG|B,D A,C|F,G,3:|!
